/**
 * test.logo

 * An example MiniLogo program
 * Draws a simple square on the screen
 */

// Draws a square at the given x,y relative offset
// Resets back afterwards
def square(x, y, scale) {

   move( x, y )

   pen(down)

   move(scale,0)
   move(0,scale)
   move(-1 * scale,0)
   move(0,-1 * scale)
   pen(up)

   move(-x,-y)
}

square(100,100,300)

move(100,100)

// draw a 10x10 grid of squares as an example
for x = 0 to 10 {
    for y = 0 to 10 {
        // call the square routine with a provided x & y start
        color(x*30, y*30, (x + y) * 30)
        square(x * 30, y * 30, 30)
    }
}
