/**
 * test.logo

 * An example MiniLogo program
 * Draws a simple square on the screen
 */

// Draws a square at the given x,y relative offset
// Resets back afterwards
def square(x, y, scale) {

   move( x, y )

   pen(down)

   move(scale,0)
   move(0,scale)
   move(-1 * scale,0)
   move(0,-1 * scale)
   pen(up)

   move(-x,-y)
}

square(100,100,100)

move(100,100)

color(cyan)

// draw a 10x10 grid of squares as an example
for x = 0 to 10 {
    for y = 0 to 10 {
        // call the square routine with a provided x & y start
        // color(x*10, y*10, (x + y) * 10)
        square(x * 10, y * 10, 10)
    }
}
