/**
 * An example MiniLogo program
 * Draws a simple square on the screen
 */

// Draws a square at the given x,y relative offset
// Resets back afterwards
def square(x, y, scale) {

   move( x, y )

   pen(down)

   move(scale,0)
   move(0,scale)
   move(mul -1 scale,0)
   move(0,mul -1 scale)
   pen(up)

   move(-x,-y)
}

square(100,100,100)